X: 80
T:*Spindle Shanks
T:Mulqueen's
C:Reel
R:reel
M:4/4
K:D
F2EG FDDE|FGAG FDDE|F2EG FDDE|1 (3FGA Bc dBAG:|2 (3FGA Bc d2cd|]
~e3d efed|cdef g2fg| ~e3d efed|cABc d2cd|
~e3d efed|cdef g2fg| af~f2 ge~e2|dfec dBAG|]
"variation"
~e3f e3d|cdef g2fg| ~e3d efed|cABc d2cd|
~e3f e3d|cdef g2fg| af~f2 ge~e2|dfec dBAG|]

